X:0188
T:Aldridge's Allemande.
N:Aldridge was an English dancer who inspired several tunes; other
N:untitled tunes of the 1780s are labelled "danced by Aldridge"
M:2/4
L:1/16
Q:1/4=104
I: :: ::
Z:Jack Campin * www.campin.me.uk * 2009
K:D
f2|egec d2f2|egec d2A2|B2A2 B2Tc2|dcde d2
f2|egec d2f2|egec d2A2|B2A2 B2c2 |d6   :|
g2|fafd fafd|gbge gbge|fafd fafd |cece A2
g2|fafd fafd|gbge gbge|fafd egec |d6   :|

